!!!!SEGMENT: pl-sa--l-1643--001_anonim--tua-est-potentia-tuum-regnum-domine.krn
!!!cenid: 16xx:1356
!!!COM: Anonim
!!!COM-rismID: pe30004985
!!!CDT:
!!!CNT:
!!!OTL: Tua est potentia, tuum regnum Domine
!!!PDT:
!!!AGN: Sacred
!!!SMS-siglum: PL-SA
!!!SMS-shelfmark: L 1643
!!!SMS-shelfwork: 001 W
!!!SMS-variant:
!!!SMS-altvar:
!!!NIFC-rismSourceID: 1001064768
!!!NIFC-islandoraID:
!!!URL-pdf-islandora:
!!!URL-scan:
!!!ONB-nifc: UWAGA: 8 ksiąg. Primi chori: 1mus Cantus (s. 3-4), C 2dus (s. 1-2), C 3tius (s. 1-2), Bassus (s. 1-2); Secondi chori: Primus Cantus (s. 1-2), C 2dus (s. 1-2), Altus (s. 1-2), Bassus (s. 1-2). UWAGA: metrum 2/2 i 3/2
!!!AIN: 8 empty
!!!key:
**kern	**text	**kern	**text	**kern	**text	**kern	**text	**kern	**text	**kern	**text	**kern	**text	**kern	**text
*part8	*part8	*part7	*part7	*part6	*part6	*part5	*part5	*part4	*part4	*part3	*part3	*part2	*part2	*part1	*part1
*staff8	*staff8	*staff7	*staff7	*staff6	*staff6	*staff5	*staff5	*staff4	*staff4	*staff3	*staff3	*staff2	*staff2	*staff1	*staff1
*Iempty	*	*Iempty	*	*Iempty	*	*Iempty	*	*Iempty	*	*Iempty	*	*Iempty	*	*Iempty	*
*I"Baſsus 2di Chori	*	*I"Altus secundi Chori.	*	*I"Cantus 2dus Secundi Chori.	*	*I"Primus cantus 2di Chori	*	*I"Bassus Primi Chori.	*	*I"Cantus 3tus Primi Chori	*	*I"Cantus 2dus Primi Chori.	*	*I"1m(us) Cantus Primi Chori	*
*I'Coro 2 B 2	*	*I'Coro 2 A	*	*I'Coro 2 S 2	*	*I'Coro 2 S 1	*	*I'Coro 1 B	*	*I'Coro 1 S 3	*	*I'Coro 1 S 2	*	*I'Coro 1 S 1	*
*clefC4	*	*clefC3	*	*clefC1	*	*clefC1	*	*clefC3	*	*clefC2	*	*clefG2	*	*clefG2	*
*k[]	*	*k[]	*	*k[]	*	*k[]	*	*k[]	*	*k[]	*	*k[]	*	*k[]	*
*a:	*	*a:	*	*a:	*	*a:	*	*a:	*	*a:	*	*a:	*	*a:	*
*M2/1	*	*M2/1	*	*M2/1	*	*M2/1	*	*M2/1	*	*M2/1	*	*M2/1	*	*M2/1	*
*met(C|)	*	*met(C|)	*	*met(C|)	*	*met(C|)	*	*met(C|)	*	*met(C|)	*	*met(C|)	*	*met(C|)	*
=1-	=1-	=1-	=1-	=1-	=1-	=1-	=1-	=1-	=1-	=1-	=1-	=1-	=1-	=1-	=1-
!	!	!	!	!	!	!	!	!LO:TX:b:t=Tua eſt po	!	!LO:TX:b:t=Tua eſt po&colon;	!	!LO:TX:b:t=Tua eſt pote(n)tia.	!	!LO:TX:b:t=Tua eſt potentia.	!
1A\	Tu-	1e\	Tu-	1a\	Tu-	1cc#X\	Tu-	0r	.	0r	.	0r	.	0r	.
2A/,<	-a	2e\,<	-a	2a\	-a	2cc#\,<	-a	.	.	.	.	.	.	.	.
4A/	eſt	4e\	eſt	4a\	eſt	4cc#\	eſt	.	.	.	.	.	.	.	.
4A/	po-	4e\	po-	4a\	po-	4cc#\	po-	.	.	.	.	.	.	.	.
=2-	=2-	=2-	=2-	=2-	=2-	=2-	=2-	=2-	=2-	=2-	=2-	=2-	=2-	=2-	=2-
2.d\	-ten-	2.f\	-ten-	2.a\	-ten-	2.dd\	-ten-	1r	.	1r	.	1r	.	1r	.
4d\	-ti-	4f\	-ti-	4a\	-ti-	4dd\	-ti-	.	.	.	.	.	.	.	.
1A\	-a	1e\	-a	1a\	-a	1cc#X\	-a	2r	.	2r	.	2r	.	2r	.
.	.	.	.	.	.	.	.	4A/	Tu-	4a\	Tu-	4cc#X\	Tu-	4ee\	Tu-
.	.	.	.	.	.	.	.	4A/	-um	4a\	-um	4cc#\	-(um)	4ee\,<	-um
=3-	=3-	=3-	=3-	=3-	=3-	=3-	=3-	=3-	=3-	=3-	=3-	=3-	=3-	=3-	=3-
00r	.	00r	.	00r	.	00r	.	1.d\	re-	1.a\	re-	4dd\	re-	4ff\	re-
.	.	.	.	.	.	.	.	.	.	.	.	4ccny\	.	4ee\	.
.	.	.	.	.	.	.	.	.	.	.	.	4b\	.	4dd\	.
.	.	.	.	.	.	.	.	.	.	.	.	4a/	.	4cc\	.
.	.	.	.	.	.	.	.	.	.	.	.	2dd\	.	2ff\	.
.	.	.	.	.	.	.	.	2f\	-gnum	2f\	-gnum	2a/,<	-gnum	2dd\	-gnum
=4-	=4-	=4-	=4-	=4-	=4-	=4-	=4-	=4-	=4-	=4-	=4-	=4-	=4-	=4-	=4-
.	.	.	.	.	.	.	.	1.e\	Do-	2g#X\	Do-	2b\	Do-	1.ee\	Do-
.	.	.	.	.	.	.	.	.	.	1a\	.	2cc\	.	.	.
.	.	.	.	.	.	.	.	.	.	.	.	2.b/	.	.	.
.	.	.	.	.	.	.	.	2e\	-mi-	2g#X\	-mi-	.	.	2ee\	-mi-
.	.	.	.	.	.	.	.	.	.	.	.	4b/	-mi-	.	.
=5-	=5-	=5-	=5-	=5-	=5-	=5-	=5-	=5-	=5-	=5-	=5-	=5-	=5-	=5-	=5-
2r	.	2r	.	2r	.	2r	.	1A/	-ne	1a\	-ne	1cc\	-ne	1ee\	-ne
*	*ij	*	*	*	*ij	*	*	*	*	*	*	*	*	*	*
2A/	Tu-	2e\	tu-	2a\	Tu-	2ccny\	Tu-	.	.	.	.	.	.	.	.
2A/	-a	2e\,<	-a	2a\	-a	2cc\	-a	0r	.	0r	.	0r	.	0r	.
4G/	eſt	4g\	eſt	4b\	eſt	4dd\	eſt	.	.	.	.	.	.	.	.
4G/	po-	4g\	po-	4b\	po-	4dd\	po-	.	.	.	.	.	.	.	.
=6-	=6-	=6-	=6-	=6-	=6-	=6-	=6-	=6-	=6-	=6-	=6-	=6-	=6-	=6-	=6-
2.c\	-ten-	2.g\	-ten-	2.cc\	-ten-	2.ee\	-ten-	.	.	.	.	.	.	.	.
4c\	-ti-	4g\	-ti-	4cc\	-ti-	4ee\	-ti-	.	.	.	.	.	.	.	.
1G/	-a	1g\	-a	1b\	-a	1dd\	-a	2r	.	2r	.	2r	.	2r	.
*	*Xij	*	*	*	*Xij	*	*	*	*	*	*	*	*	*	*
.	.	.	.	.	.	.	.	2g\	tu-	2b\	Tu-	2dd\	Tu-	2dd\	Tu-
=7-	=7-	=7-	=7-	=7-	=7-	=7-	=7-	=7-	=7-	=7-	=7-	=7-	=7-	=7-	=7-
0r	.	0r	.	0r	.	0r	.	2c/	-a	2gny\	-a	2cc\,<	-a	2ee\,<	-a
.	.	.	.	.	.	.	.	4c/	eſt	4g\	eſt	4cc\	eſt	4ee\,<	eſt
.	.	.	.	.	.	.	.	4c/	po-	4g\	po-	4cc\	po-	4ee\	po-
.	.	.	.	.	.	.	.	2.f\	-ten-	2.a\	-ten-	2.cc\	-ten-	2.ff\	-ten-
.	.	.	.	.	.	.	.	4f\	-ti-	4a\	-ti-	4cc\	-ti-	4ff\	-ti-
=8-	=8-	=8-	=8-	=8-	=8-	=8-	=8-	=8-	=8-	=8-	=8-	=8-	=8-	=8-	=8-
2r	.	2r	.	2r	.	2r	.	1c\	-a	1g\	-a	1cc\	-a	1ee\	-a
4c\	tu-	4c/	tu-	4cc\	tu-	4ee\	tu-	.	.	.	.	.	.	.	.
4c\	-um	4c/	-um	4cc\	-um	4ee\	-um	.	.	.	.	.	.	.	.
2f\	re-	2d\	re-	2a\	re-	2cc\	re-	2r	.	2r	.	2r	.	2r	.
!	!	!	!	!LO:TX:t=P:problem=niewyraźne źródło	!	!	!	!	!	!	!	!	!	!	!
2c\	-gn(um)	2c/	-gnum	2cc\	-gnum	2ee\	-gnum	4c/	tu-	4g\	tu-	4cc\	tu-	4ee\	tu-
.	.	.	.	.	.	.	.	4c/	-um	4g\	-um	4cc\	-um	4ee\	-um
=9-	=9-	=9-	=9-	=9-	=9-	=9-	=9-	=9-	=9-	=9-	=9-	=9-	=9-	=9-	=9-
2r	.	2r	.	2r	.	2r	.	2f\	re-	2a\	re-	2cc\	re-	2ff\	re-
*	*	*	*	*	*	*	*	*	*	*	*	*custos:b	*	*custos:ee	*
4c\	tu-	4e\	tu-	4cc\	tu-	4ee\	tu-	2c/	-gn(um)	2g\	-gnum	2cc\	-gnum	2ee\	-gnum
*	*	*	*ij	*	*	*	*	*	*	*	*	*	*	*	*
4c\	-um	4e\	-um	4cc\	-(um)	4ee\	-(um)	.	.	.	.	.	.	.	.
*	*	*	*	*	*	*	*	*	*	*custos:e	*	*	*	*	*
!	!	!	!	!	!	!	!	!	!	!	!	!LO:LB:g=original	!	!LO:LB:g=original	!
2F/	re-	2f\	re-	2dd\	re-	2a\	re-	0r	.	0r	.	0r	.	0r	.
2A/	-gn(um)	2e\	-gnum	2a\	-gnum	2cc\,<	-gnum	.	.	.	.	.	.	.	.
=10-	=10-	=10-	=10-	=10-	=10-	=10-	=10-	=10-	=10-	=10-	=10-	=10-	=10-	=10-	=10-
!	!	!	!	!	!	!	!	!	!	!	!	!	!	!	!
2.F/	D(o-	2.f\	Do-	2.a\	Do-	2.dd\	Do-	.	.	.	.	.	.	.	.
4F/	-mi)-	4d\	-mi-	4a\	-mi-	4dd\	-mi-	.	.	.	.	.	.	.	.
*custos:e	*	*	*	*custos:b	*	*custos:ee	*	*	*	*	*	*	*	*	*
!	!	!	!	!	!	!	!	!	!	!LO:LB:g=original	!	!	!	!	!
2E/	-ne	2B/,<	-ne	2g#X/	-ne	2ee\	-ne	2r	.	2r	.	2r	.	2r	.
*	*	*	*Xij	*	*	*	*ij	*	*	*	*	*	*	*	*
!LO:LB:g=original	!	!	!	!LO:LB:g=original	!	!LO:LB:g=original	!	!	!	!	!	!	!	!	!
4e\	tu-	4e\	tu-	4b\	tu-	4ee\	tu-	4e\	tu-	4e/	tu-	4b\	Tu-	4ee\	tu-
*	*	*custos:e	*	*	*	*	*	*	*	*	*	*	*	*	*
4e\	-um	4e\	-um	4b\	-um	4ee\,<	-(um)	4e\	-(um)	4e/	-um	4b\,<	-um	4ee\,<	-um
=11-	=11-	=11-	=11-	=11-	=11-	=11-	=11-	=11-	=11-	=11-	=11-	=11-	=11-	=11-	=11-
!	!	!LO:LB:g=original	!	!	!	!	!	!	!	!	!	!	!	!	!
1.A\	re-	1.e\	re-	1.a\	re-	4cc\	re-	1.a\	re-	1.e\	re-	1.cc\	re-	4ee\	re-
.	.	.	.	.	.	4b\	.	.	.	.	.	.	.	4dd\	.
.	.	.	.	.	.	4a\	.	.	.	.	.	.	.	4cc\	.
!	!	!	!	!	!	!LO:TX:t=P:problem=# below	!	!	!	!	!	!	!	!	!
.	.	.	.	.	.	4g#X\	-gnum	.	.	.	.	.	.	4b\	.
.	.	.	.	.	.	4a\	Do-	.	.	.	.	.	.	4cc\	.
.	.	.	.	.	.	4b\	.	.	.	.	.	.	.	4dd\	.
*	*	*	*	*	*	*	*	*custos:e	*	*	*	*	*	*	*
2A/,<	-gnum	2e\	-gn(um)	2a\,<	-gnum	2cc\	-mi-	2A/	-gnum	2e/,<	-gnum	2cc\,<	-gnum	2ee\,<	-gnum
=12-	=12-	=12-	=12-	=12-	=12-	=12-	=12-	=12-	=12-	=12-	=12-	=12-	=12-	=12-	=12-
!	!	!	!	!	!	!	!	!LO:LB:g=original	!	!	!	!	!	!	!
1.E/	Do-	1.e\	Do-	2a\	Do-	2cc\,<	-ne	1.e\	Do-	1.e\	Do-	2cc\	Do-	1.ee\	Do-
*	*	*	*	*	*	*	*Xij	*	*	*	*	*	*	*	*
.	.	.	.	4g#X/	.	4dd\	Do-	.	.	.	.	4b/	.	.	.
.	.	.	.	4f#X/	.	4ee\	.	.	.	.	.	4a/	.	.	.
.	.	.	.	2.g#X/	.	2.b\	.	.	.	.	.	2.b/	.	.	.
2E/	-mi-	2e\	-mi-	.	.	.	.	2e\	-mi-	2e/	-mi-	.	.	2ee\	-mi-
.	.	.	.	4g#/	-mi-	4b\	-mi-	.	.	.	.	4b/	-mi-	.	.
=13-	=13-	=13-	=13-	=13-	=13-	=13-	=13-	=13-	=13-	=13-	=13-	=13-	=13-	=13-	=13-
1A\	-ne	1c#X\	-ne	1a\	-ne	1a\	-ne	1A/,<	-ne	1e\,<	-ne	1cc#X\,<	-ne	1ee\,<	-ne
00r	.	00r	.	00r	.	00r	.	1.A/	tu-	1a\	tu	1.ee\	tu	1.cc\	Tu
=14-	=14-	=14-	=14-	=14-	=14-	=14-	=14-	=14-	=14-	=14-	=14-	=14-	=14-	=14-	=14-
.	.	.	.	.	.	.	.	.	.	2e/,<	es	.	.	.	.
.	.	.	.	.	.	.	.	2G/	-um	2g\	Su-	2b/,<	es	2dd\	es
.	.	.	.	.	.	.	.	2.c/	re-	1g\,<	-per	2.ccny\	Su-	2.ee\	Su-
.	.	.	.	.	.	.	.	4B/	.	.	.	4dd\,<	-per	4dd\	-per
=15-	=15-	=15-	=15-	=15-	=15-	=15-	=15-	=15-	=15-	=15-	=15-	=15-	=15-	=15-	=15-
.	.	.	.	.	.	.	.	2A/	-gnum	2cc\	o-	2cc\	o-	2ee\	o-
.	.	.	.	.	.	.	.	2d\	Do-	2b\,<	-mnes	2dd\	-mnes	2ff\,<	-mnes
1.E/	tu	1.e\	tu	1.g#X\	tu	1.b\	tu	1.e\	-mi-	2a\	gen-	1b\	gen-	1.ee\	gen-
.	.	.	.	.	.	.	.	.	.	4g#X\	.	.	.	.	.
.	.	.	.	.	.	.	.	.	.	4f#X\	.	.	.	.	.
=16-	=16-	=16-	=16-	=16-	=16-	=16-	=16-	=16-	=16-	=16-	=16-	=16-	=16-	=16-	=16-
.	.	.	.	.	.	.	.	.	.	2g#X\	.	1b\	-tes	.	.
2E/	es	2e\	es	2g#/,<	es	2b\	es	2e\	-ne	2g#\	-tes	.	.	2ee\	-tes
2.A/	Su-	2.e\	Su-	2.a\	Su-	2.cc\	Su-	0r	.	0r	.	0r	.	0r	.
4G/	-per	4e\,<	-per	4b\	-per	4b\,<	-per	.	.	.	.	.	.	.	.
=17-	=17-	=17-	=17-	=17-	=17-	=17-	=17-	=17-	=17-	=17-	=17-	=17-	=17-	=17-	=17-
2F/	o-	2f\	o-	2dd\	o-	2a\	o-	.	.	.	.	.	.	.	.
2G/,<	-mnes	2d\,<	-mnes	2b\	-mnes	2dd\	-mnes	.	.	.	.	.	.	.	.
1E/	gen-	1e\	gen-	1gny\	ter-	(2dd\	gen-	1r	.	1r	.	1r	.	1r	.
.	.	.	.	.	.	2cc#X\)	.	.	.	.	.	.	.	.	.
=18-	=18-	=18-	=18-	=18-	=18-	=18-	=18-	=18-	=18-	=18-	=18-	=18-	=18-	=18-	=18-
1D/	-tes	1A/	-tes	1f#X/	-ra	1dd\	-tes	1.d\	tu	1.f#X\	tu	1.a/	tu	1.dd\	tu
00r	.	00r	.	00r	.	00r	.	.	.	.	.	.	.	.	.
*	*	*	*	*	*	*	*	*	*	*custos:g	*	*	*	*	*
.	.	.	.	.	.	.	.	2d\	es	2f#\	es	2a/,<	es	2dd\,<	es
=19-	=19-	=19-	=19-	=19-	=19-	=19-	=19-	=19-	=19-	=19-	=19-	=19-	=19-	=19-	=19-
!	!	!	!	!	!	!	!	!	!	!LO:LB:g=original	!	!	!	!	!
.	.	.	.	.	.	.	.	2.G/	Su-	1.gny\	Su-	2.b\	Su-	1.dd\	Su-
.	.	.	.	.	.	.	.	4A/,<	-per	.	.	4cc\	.	.	.
.	.	.	.	.	.	.	.	2B/	[[o-	.	.	2dd\	.	.	.
*	*	*	*	*	*	*	*	*	*	*	*	*custos:ee	*	*custos:cc	*
.	.	.	.	.	.	.	.	2c/,<	-mnes]]	2g\,<	-per	2cc\	-per	2ee\	-per
=20-	=20-	=20-	=20-	=20-	=20-	=20-	=20-	=20-	=20-	=20-	=20-	=20-	=20-	=20-	=20-
!	!	!	!	!	!	!	!	!	!	!	!	!LO:LB:g=original	!	!LO:LB:g=original	!
.	.	.	.	.	.	.	.	2.A/	o-	1.a\	o-	2.ee\	o-	2.cc\	o-
.	.	.	.	.	.	.	.	4B/	.	.	.	4dd\	.	4dd\	.
00r	.	00r	.	00r	.	00r	.	2c/	-mnes	.	.	2cc\	.	2ee\	.
*	*	*	*	*	*	*	*	*custos:e	*	*	*	*	*	*	*
.	.	.	.	.	.	.	.	2d\,<	.	2a\,<	-mnes	4b/	.	2ff\,<	-mnes
.	.	.	.	.	.	.	.	.	.	.	.	4a/	.	.	.
=21-	=21-	=21-	=21-	=21-	=21-	=21-	=21-	=21-	=21-	=21-	=21-	=21-	=21-	=21-	=21-
!	!	!	!	!	!	!	!	!LO:LB:g=original	!	!	!	!	!	!	!
.	.	.	.	.	.	.	.	0e\	gen-	2a\	gen-	2cc\	.	0ee\	gen-
.	.	.	.	.	.	.	.	.	.	4g#X\	.	4b/	-mnes	.	.
.	.	.	.	.	.	.	.	.	.	4f#X\	.	4a/	.	.	.
.	.	.	.	.	.	.	.	.	.	1g#X\	.	1b\	gen-	.	.
=22-	=22-	=22-	=22-	=22-	=22-	=22-	=22-	=22-	=22-	=22-	=22-	=22-	=22-	=22-	=22-
.	.	.	.	.	.	.	.	1e\	-tes	1g#\	-tes	1b\	-tes	1ee\	-tes.
=23-	=23-	=23-	=23-	=23-	=23-	=23-	=23-	=23-	=23-	=23-	=23-	=23-	=23-	=23-	=23-
*M3/2	*	*M3/2	*	*M3/2	*	*M3/2	*	*M3/2	*	*M3/2	*	*M3/2	*	*M3/2	*
1E/	Da	1e\	Da	1g#X\	Da	1b\	Da	00.r	.	00.r	.	00.r	.	00.r	.
1E/	pa-	1e\	pa-	1g#\	pa-	1b\	pa-	.	.	.	.	.	.	.	.
.	.	.	.	.	.	.	.	.	.	.	.	.	.	.	.
*	*	*	*	*custos:b	*	*custos:dd	*	*	*	*	*	*	*	*	*
1A\	-cem	1e\,<	-cem	1a\	-cem	1ccny\	-cem	.	.	.	.	.	.	.	.
=24-	=24-	=24-	=24-	=24-	=24-	=24-	=24-	=24-	=24-	=24-	=24-	=24-	=24-	=24-	=24-
!	!	!	!	!LO:LB:g=original	!	!LO:LB:g=original	!	!	!	!	!	!	!	!	!
1.G/	D(o-	1.g\	Do-	1.b\	Do-	1.dd\	Do-	.	.	.	.	.	.	.	.
!	!	!	!	!LO:TX:t=P:problem=niewyraźne źródło	!	!	!	!	!	!	!	!	!	!	!
2F/	-mi)-	2g\	-mi-	2a\	-mi-	2dd\	-mi-	.	.	.	.	.	.	.	.
1E/	-ne	1g\,<	-ne	1g#X\,<	-ne	1ee\,<	-ne	.	.	.	.	.	.	.	.
=25-	=25-	=25-	=25-	=25-	=25-	=25-	=25-	=25-	=25-	=25-	=25-	=25-	=25-	=25-	=25-
1.F/	in	1.f\	in	1.a\	in	1.cc\	in	00.r	.	00.r	.	00.r	.	00.r	.
*custos:D	*	*	*	*	*	*	*	*	*	*	*	*	*	*	*
2E/	di-	2f\	di-	2a\	di-	2cc\	di-	.	.	.	.	.	.	.	.
!LO:LB:g=original	!	!	!	!	!	!	!	!	!	!	!	!	!	!	!
1D/	-e-	1f\	-e-	1a\	-e-	1dd\	-e-	.	.	.	.	.	.	.	.
=26-	=26-	=26-	=26-	=26-	=26-	=26-	=26-	=26-	=26-	=26-	=26-	=26-	=26-	=26-	=26-
*	*	*custos:e	*	*	*	*	*	*	*	*	*	*	*	*	*
1A\	-bus	1e\,<	-bus	1a\,<	-bus	1cc\	-bus	.	.	.	.	.	.	.	.
!	!	!LO:LB:g=original	!	!	!	!	!	!	!	!	!	!	!	!	!
0E/	no-	0e\	no-	(1a\	no-	0b\	no-	.	.	.	.	.	.	.	.
.	.	.	.	1g#X\)	.	.	.	.	.	.	.	.	.	.	.
=27-	=27-	=27-	=27-	=27-	=27-	=27-	=27-	=27-	=27-	=27-	=27-	=27-	=27-	=27-	=27-
0A\	-ſtris	0e\	-ſtris	0a\	-ſtris	0cc#X\	-ſtris	1A/	Da	1a\	Da	1cc#X\	Da	1ee\	Da
.	.	.	.	.	.	.	.	1A/	pa-	1a\	pa-	1cc#\	pa-	1ee\	pa-
.	.	.	.	.	.	.	.	.	.	.	.	.	.	.	.
1r	.	1r	.	1r	.	1r	.	1d\,<	-cem	1a\,<	-cem	1dd\,<	-cem	1ff\,<	-cem
=28-	=28-	=28-	=28-	=28-	=28-	=28-	=28-	=28-	=28-	=28-	=28-	=28-	=28-	=28-	=28-
00.r	.	00.r	.	00.r	.	00.r	.	1.e\	Do-	1.gny\	Do-	1.ccny\	Do-	1.ee\	Do-
.	.	.	.	.	.	.	.	2f\	-mi-	2g\	-mi-	2cc\	-mi-	2ee\	-mi-
.	.	.	.	.	.	.	.	1g\	-ne	1g\,<	-ne	1b\	-ne	1dd\,<	-ne
=29-	=29-	=29-	=29-	=29-	=29-	=29-	=29-	=29-	=29-	=29-	=29-	=29-	=29-	=29-	=29-
.	.	.	.	.	.	.	.	1.d\	in	1.a\	in	1.dd\	in	1.ff\	in
.	.	.	.	.	.	.	.	2e\	di-	2a\	di-	2cc\	di-	2ee\	di-
.	.	.	.	.	.	.	.	1f\	-e-	1a\,<	-e-	1a/	-e-	1cc\	-e-
=30-	=30-	=30-	=30-	=30-	=30-	=30-	=30-	=30-	=30-	=30-	=30-	=30-	=30-	=30-	=30-
*	*	*	*	*	*	*	*	*	*	*custos:a	*	*	*	*	*
0.r	.	0.r	.	0.r	.	0.r	.	1d\,<	-bus	1a\	-bus	1dd\,<	-bus	1ff\,<	-bus
!	!	!	!	!	!	!	!	!	!	!LO:LB:g=original	!	!	!	!	!
.	.	.	.	.	.	.	.	0e\	no-	(1a\	no-	0b\	no-	0ee\	no-
.	.	.	.	.	.	.	.	.	.	1g#X\)	.	.	.	.	.
=31-	=31-	=31-	=31-	=31-	=31-	=31-	=31-	=31-	=31-	=31-	=31-	=31-	=31-	=31-	=31-
*	*	*	*	*	*	*	*	*	*	*	*	*custos:cc#	*	*	*
1A\	Da	1a\	Da	1cc#X\	Da	1ee\	Da	0A/	-ſtris	0a\	-striſ	0cc#X\	-striſ	0ee\	-striſ
1A\	pa-	1a\	pa-	1cc#\	pa-	1ee\	pa-	.	.	.	.	.	.	.	.
1D/,<	-cem	1f\,<	-cem	1dd\	-cem	1ff\	-cem	1r	.	1r	.	1r	.	1r	.
=32-	=32-	=32-	=32-	=32-	=32-	=32-	=32-	=32-	=32-	=32-	=32-	=32-	=32-	=32-	=32-
!	!	!	!	!	!	!	!	!	!	!	!	!LO:LB:g=original	!	!	!
1.A\	Do-	1.a\	Do-	1.cc#X\	Do-	1.ee\	Do-	1A/	Da	1a\	Da	1cc#X\	Da	1ee\	Da
.	.	.	.	.	.	.	.	1A/	pa-	1a\	pa-	1cc#\	pa-	1ee\	pa-
2A/	-mi-	2a\	-mi-	2cc#\	-mi-	2ee\	-mi-	.	.	.	.	.	.	.	.
*	*	*	*	*	*	*	*	*	*	*	*	*	*	*custos:ee	*
1D/,<	-ne	1a\,<	-ne	1a\	-ne	1dd\,<	-ne	1d\,<	-cem	1fny\,<	-cem	1dd\	-cem	1ff\	-cem
!	!	!	!	!	!	!	!	!	!	!	!	!	!	!	!
.	.	.	.	.	.	.	.	.	.	.	.	.	.	.	.
=33-	=33-	=33-	=33-	=33-	=33-	=33-	=33-	=33-	=33-	=33-	=33-	=33-	=33-	=33-	=33-
*	*ij	*	*	*	*	*	*	*	*	*	*	*	*	*	*
!	!	!	!	!	!	!	!	!	!	!	!	!	!	!LO:LB:g=original	!
1A\	Da	1a\	Da	1cc#X\	da	1ee\	da	1.A/	Do-	1.a\	Do-	1.cc#X\	Do-	1.ee\	Do-
1A\	pa-	1a\	pa-	1cc#\	pa-	1ee\	pa-	.	.	.	.	.	.	.	.
.	.	.	.	.	.	.	.	2A/	-mi-	2a\	-mi-	2cc#\	-mi-	2ee\	-mi-
*	*	*	*	*custos:cc#	*	*	*	*custos:f	*	*	*	*	*	*	*
1D/	-cem	1f\,<	-cem	1dd\	-cem	1ff\	-cem	1d\	-ne	1a\	-ne	1a/	-ne	1dd\	-ne
!	!	!	!	!	!	!	!	!	!	!	!	!	!	!	!
.	.	.	.	.	.	.	.	.	.	.	.	.	.	.	.
=34-	=34-	=34-	=34-	=34-	=34-	=34-	=34-	=34-	=34-	=34-	=34-	=34-	=34-	=34-	=34-
!	!	!	!	!LO:LB:g=original	!	!	!	!LO:LB:g=original	!	!	!	!	!	!	!
1.A\	Do-	1.a\	Do-	1cc#X\	Do-	1.ee\	Do-	0.r	.	0.r	.	0.r	.	0.r	.
.	.	.	.	1cc#\	-mi-	.	.	.	.	.	.	.	.	.	.
2A/	-mi-	2a\	-mi-	.	.	2ee\	-mi-	.	.	.	.	.	.	.	.
*	*	*	*	*	*	*custos:cc	*	*	*	*	*	*	*	*	*
1A\,<	-ne	1a\,<	-ne	1cc#\,<	-ne	1ee\	-ne	.	.	.	.	.	.	.	.
*	*Xij	*	*	*	*	*	*	*	*	*	*	*	*	*	*
!	!	!	!	!	!	!	!	!	!	!	!	!	!	!	!
.	.	.	.	.	.	.	.	.	.	.	.	.	.	.	.
=35-	=35-	=35-	=35-	=35-	=35-	=35-	=35-	=35-	=35-	=35-	=35-	=35-	=35-	=35-	=35-
!	!	!	!	!	!	!LO:LB:g=original	!	!	!	!	!	!	!	!	!
1.F/	in	1.A/	in	1.a\	in	1.ccny\	in	1.f\	in	1.a\	in	1.ccny\	in	1.ff\	in
.	.	.	.	.	.	.	.	.	.	.	.	.	.	.	.
!LO:N:vis=4	!	!	!	!	!	!	!	!	!	!	!	!	!	!	!
2F/	di-	2A/	di-	2a\	di-	2cc\	di-	2f\	di-	2a\	di-	2cc\	di-	2ff\	di-
1c\	-e-	1B\	-e-	1e/	-e-	1cc\	-e-	1c\	-e-	1gny\	-e-	1cc\	-e-	1ee\	-e-
.	.	.	.	.	.	.	.	.	.	.	.	.	.	.	.
=36-	=36-	=36-	=36-	=36-	=36-	=36-	=36-	=36-	=36-	=36-	=36-	=36-	=36-	=36-	=36-
1G/	-bus	1e\	-bus	1gny\	-bus	1b-X\,<	-bus	1g\,<	-bus	1b-X\	-bus	1dd\	-bus	1dd\,<	-bus
!	!	!	!	!	!	!	!	!	!	!	!	!LO:TX:t=P:problem=niewyraźnie źródło	!	!	!
0A\	no-	0A/	no-	0ee\	no-	(1cc\	no-	0e\	no-	0a\	no-	0a/	no-	(1dd\	no-
.	.	.	.	.	.	1a\)	.	.	.	.	.	.	.	1cc#X\)	.
=37-	=37-	=37-	=37-	=37-	=37-	=37-	=37-	=37-	=37-	=37-	=37-	=37-	=37-	=37-	=37-
!LO:LB:g=original	!	!	!	!	!	!	!	!	!	!	!	!	!	!	!
*M2/1	*	*M2/1	*	*M2/1	*	*M2/1	*	*M2/1	*	*M2/1	*	*M2/1	*	*M2/1	*
*met(C|)	*	*met(C|)	*	*met(C|)	*	*met(C|)	*	*met(C|)	*	*met(C|)	*	*met(C|)	*	*	*
1D/,<	-ſtris.	1d\,<	-ſtris.	1dd\,<	-ſtris.	1a\,<	-ſtris.	1f#X\	-ſtris.	1f#X\	-ſtris.	1a/	-ſtris.	1dd\	-ſtris.
1A\	Cre-	1e\	Cre-	1a\	Cre-	1cc#X\	Cre-	00r	.	00r	.	00r	.	00r	.
=38-	=38-	=38-	=38-	=38-	=38-	=38-	=38-	=38-	=38-	=38-	=38-	=38-	=38-	=38-	=38-
2d\	-a-	2f#X\	-a-	2a\	-a-	2dd\	-a-	.	.	.	.	.	.	.	.
*	*	*custos:g	*	*	*	*	*	*	*	*	*	*	*	*	*
2G/	-tor	2g\	-tor	2b-X\,<	-tor	2dd\	-tor	.	.	.	.	.	.	.	.
!	!	!LO:LB:g=original	!	!	!	!	!	!	!	!	!	!	!	!	!
2.A/	o-	4g\	o-	1a\	o-	1.ccny\	o-	.	.	.	.	.	.	.	.
.	.	4fny\	.	.	.	.	.	.	.	.	.	.	.	.	.
.	.	1f\	.	.	.	.	.	.	.	.	.	.	.	.	.
4B\	.	.	.	.	.	.	.	.	.	.	.	.	.	.	.
=39-	=39-	=39-	=39-	=39-	=39-	=39-	=39-	=39-	=39-	=39-	=39-	=39-	=39-	=39-	=39-
2c\	.	.	.	1g\	-mni-	.	.	.	.	.	.	.	.	.	.
2c\	-mni-	2e\	-mni-	.	.	2cc\	-mni-	.	.	.	.	.	.	.	.
2F/,<	-um	2f\,<	-um	2a\,<	-um	2cc\,<	-um	1r	.	1r	.	1r	.	1r	.
2c\	De-	2e\	De-	2g/	De-	2cc\	De-	.	.	.	.	.	.	.	.
=40-	=40-	=40-	=40-	=40-	=40-	=40-	=40-	=40-	=40-	=40-	=40-	=40-	=40-	=40-	=40-
4G/	-us	4g\	-(us)	4bny\	-us	4dd\	-us	4r	.	4r	.	4r	.	4r	.
4G/	ter-	4g\	ter-	4b\	ter-	4dd\	ter-	4g\	De-	4g\	De-	4b/	De-	4dd\	De-
4.c\	-ri-	4.e\	-ri-	4.g/	-ri-	4.cc\	-ri-	4c/,<	-us	4g\	-us	4cc\	-us	4ee\	-us
*	*	*	*	*	*	*	*	*	*	*custos:f	*	*	*	*	*
.	.	.	.	.	.	.	.	4c/	ter-	4g\	ter-	4cc\	ter-	4ee\	ter-
8c\	-bi-	8e\	-bi-	8g/	-bi-	8cc\	-bi-	.	.	.	.	.	.	.	.
!	!	!	!	!	!	!	!	!	!	!LO:LB:g=original	!	!	!	!	!
2F/	-lis	2cny/	-lis	2a\	-lis	2cc\	-lis	4.fny\	-ri-	4.fny\	-ri-	4.cc\	-ri-	4.ff\	-ri-
.	.	.	.	.	.	.	.	8f\	-bi-	8f\	-bi-	8cc\	-bi-	8ff\	-bi-
4r	.	4r	.	4r	.	4r	.	2c/	-lis	2g\	-lis,	2cc\	-lis	2ee\	-lis
*	*ij	*	*	*	*	*	*	*	*	*	*	*	*	*	*
4c\	De-	4d\	De-	4g/	De-	4cc\	De-	.	.	.	.	.	.	.	.
=41-	=41-	=41-	=41-	=41-	=41-	=41-	=41-	=41-	=41-	=41-	=41-	=41-	=41-	=41-	=41-
*	*	*	*	*custos:dd	*	*	*	*	*	*	*	*	*	*	*
4G/	-us	4g\,<	-us	4b\	-us	4dd\	-us	4r	.	4r	.	4r	.	4r	.
*	*	*	*	*	*	*custos:dd	*	*	*	*	*	*	*	*	*
!	!	!	!	!LO:LB:g=original	!	!	!	!	!	!	!	!	!	!	!
4G/	ter-	4d\	ter-	4dd\	ter-	4dd\	ter-	4g\	De-	4g\	De-	4b/	De-	4dd\	De-
!	!	!	!	!	!	!LO:LB:g=original	!	!	!	!	!	!	!	!	!
4.d\	-ri-	4.f\	-ri-	4.dd\	-ri-	4.dd\	-ri-	4d\	-us	4a\	-(us)	4a/	-(us)	4dd\	-(us)
*	*	*	*	*	*	*	*	*	*	*	*	*custos:cc	*	*	*
.	.	.	.	.	.	.	.	4d\	ter-	4f\	ter-	4a/	ter-	4dd\	ter-
8d\	-bi-	8f\	-bi-	8a\	-bi-	8dd\	-bi-	.	.	.	.	.	.	.	.
!	!	!	!	!LO:TX:t=P:problem=niewyraźne źródło	!	!	!	!	!	!LO:LB:g=original	!	!	!	!	!
2A/	-lis	2e\	-lis	2a\	-lis	2cc\	-lis	4.a\	-ri-	4.a\	-ri-	4.cc\	-ri-	4.ee\	-ri-
*	*Xij	*	*	*	*	*	*	*	*	*	*	*	*	*	*
.	.	.	.	.	.	.	.	8a\	-bi-	8a\	-bi-	8cc\	-bi-	8ee\	-bi-
*	*	*	*	*	*	*	*	*	*	*	*	*	*	*custos:ee	*
2r	.	2r	.	2r	.	2r	.	2e\	-lis	2g#X\	-lis,	2b\	-lis.	2ee\	-lis.
=42-	=42-	=42-	=42-	=42-	=42-	=42-	=42-	=42-	=42-	=42-	=42-	=42-	=42-	=42-	=42-
!	!	!	!	!	!	!	!	!	!	!	!	!	!	!LO:LB:g=original	!
2r	.	2r	.	2r	.	2r	.	00r	.	00r	.	00r	.	00r	.
2c\	ter-	2e\	ter-	2g\	ter-	2ee\	ter-	.	.	.	.	.	.	.	.
2.c\	-ri-	2.g\	-ri-	2.ccny\	-ri-	2.ee\	-ri-	.	.	.	.	.	.	.	.
4c\	-bi-	4g\	-bi-	4cc\	-bi-	4ee\	-bi-	.	.	.	.	.	.	.	.
=43-	=43-	=43-	=43-	=43-	=43-	=43-	=43-	=43-	=43-	=43-	=43-	=43-	=43-	=43-	=43-
*custos:G	*	*	*	*	*	*	*	*	*	*	*	*	*	*	*
2G/	-lis	2g\,<	-lis	2b\,<	-lis	2dd\,<	-lis	.	.	.	.	.	.	.	.
!LO:LB:g=original	!	!	!	!	!	!	!	!	!	!	!	!	!	!	!
2G/	et	2g\	et	2b\	et	2dd\	et	.	.	.	.	.	.	.	.
1A\	for-	1e\	for-	4a\	for-	4dd\	for-	.	.	.	.	.	.	.	.
.	.	.	.	4g#X/	.	4bny\	.	.	.	.	.	.	.	.	.
.	.	.	.	4a\	.	4cc\	.	.	.	.	.	.	.	.	.
.	.	.	.	4b\	.	4dd\	.	.	.	.	.	.	.	.	.
=44-	=44-	=44-	=44-	=44-	=44-	=44-	=44-	=44-	=44-	=44-	=44-	=44-	=44-	=44-	=44-
2E/,<	-tis	2e\,<	-tis	2g#X/,<	-tis	2b\,<	-tis	0r	.	0r	.	0r	.	0r	.
2A/	iu-	2e\	iu-	2a\	iu-	2cc\	iu-	.	.	.	.	.	.	.	.
2G/,<	-stus	2g\,<	-stus	2b\,<	-ſtus	2dd\,<	-ſtus	.	.	.	.	.	.	.	.
4D/	et	4f\	et	4a\	et	1dd\	et	.	.	.	.	.	.	.	.
*	*	*custos:e	*	*	*	*	*	*	*	*	*	*	*	*	*
4D/	mi-	4f\	mi-	4a\	mi	.	.	.	.	.	.	.	.	.	.
=45-	=45-	=45-	=45-	=45-	=45-	=45-	=45-	=45-	=45-	=45-	=45-	=45-	=45-	=45-	=45-
!LO:TX:t=P:problem=niewyraźne źródło	!	!LO:LB:g=original	!	!	!	!	!	!	!	!	!	!	!	!	!
1.E/	-ſe-	1.e\	-se-	2g#X/	-ſe-	.	.	1r	.	1r	.	1r	.	1r	.
.	.	.	.	1a\	.	2cc\	mi-	.	.	.	.	.	.	.	.
.	.	.	.	.	.	2.b\	-ſe-	2r	.	2r	.	2r	.	2r	.
*	*	*	*	*	*	*	*	*custos:A	*	*	*	*	*	*	*
2E/	-ri-	2e\	-ri-	2g#X/	-ri-	.	.	2e\	et-	2bny\	ter-	2ee\	ter-	2ee\	ter-
.	.	.	.	.	.	4b\	-ri-	.	.	.	.	.	.	.	.
=46-	=46-	=46-	=46-	=46-	=46-	=46-	=46-	=46-	=46-	=46-	=46-	=46-	=46-	=46-	=46-
!	!	!	!	!	!	!	!	!LO:LB:g=original	!	!	!	!	!	!	!
!	!	!	!	!	!	!	!	!LO:TX:t=P:problem=niewyraźne źródło	!	!	!	!	!	!	!
1A\	-cors	1e\	-cors	1a\	-cors	1cc#X\	-cors	2.A/	-ri-	2.a\	-ri-	2.cc#X\	-ri-	2.ee\	-ri-
.	.	.	.	.	.	.	.	4A/	-bi-	4a\	-bi-	4cc#\	-bi-	4ee\	-bi-
0r	.	0r	.	0r	.	0r	.	2A/,<	-lis	2a\,<	-lis	2cc#\,<	-lis	2ee\,<	-lis
.	.	.	.	.	.	.	.	1d\	for-	1a\	for-	1dd\	for-	1ff\	for-
=47-	=47-	=47-	=47-	=47-	=47-	=47-	=47-	=47-	=47-	=47-	=47-	=47-	=47-	=47-	=47-
.	.	.	.	.	.	.	.	.	.	.	.	.	.	.	.
.	.	.	.	.	.	.	.	2e\	-tis	2gny\,<	-tus	2ccny\,<	-tis	2ee\,<	-tis
*	*	*	*	*custos:cc	*	*	*	*	*	*	*	*	*	*	*
1r	.	1r	.	1r	.	1r	.	2c/	et	2g\	et	2cc\	et	2ee\,<	et
.	.	.	.	.	.	.	.	2f\	iu-	2a\	ius-	2cc\	iuſ-	2ff\	iuſ-
=48-	=48-	=48-	=48-	=48-	=48-	=48-	=48-	=48-	=48-	=48-	=48-	=48-	=48-	=48-	=48-
!	!	!	!	!LO:LB:g=original	!	!	!	!	!	!	!	!	!	!	!
4r	.	4r	.	4r	.	4r	.	1c\	ſtus	1g\	-tus	1cc\	-tus	1ee\	-tus
4c\	ter-	4e\	ter-	4cc\	ter-	4ee\	ter-	.	.	.	.	.	.	.	.
4.c\	-ri-	4.g\	-ri-	4.cc\	-ri-	4.ee\	-ri-	.	.	.	.	.	.	.	.
8c\	-bi-	8g\	-bi-	8cc\	-bi-	8ee\	-bi-	.	.	.	.	.	.	.	.
*	*	*	*	*	*	*custos:cc	*	*	*	*	*	*	*	*	*
2c\	-lis	2e\	-lis	2cc\	-lis	2ee\	-lis	4r	.	4r	.	4r	.	4r	.
.	.	.	.	.	.	.	.	4c/	ter-	4g\	ter-	4cc\	ter-	4ee\	ter-
!	!	!	!	!	!	!LO:LB:g=original	!	!	!	!	!	!	!	!	!
4r	.	4r	.	4r	.	4r	.	4.c/	-ri-	4.g\	-ri-	4.cc\	-ri-	4.ee\	-ri-
*	*ij	*	*	*	*	*	*	*	*	*	*	*	*	*	*
4c\	ter-	4e\	ter-	4ee\	ter-	4ccny\	ter-	.	.	.	.	.	.	.	.
.	.	.	.	.	.	.	.	8c/	-bi-	8g\	-bi-	8cc\	-bi-	8ee\	-bi-
=49-	=49-	=49-	=49-	=49-	=49-	=49-	=49-	=49-	=49-	=49-	=49-	=49-	=49-	=49-	=49-
4.c\	-ri-	4.g\	-ri-	4.cc\	-ri-	4.ee\	-ri-	2c/	-lis	2g\	-lis	2cc\	-lis	2ee\	-lis
8c\	-bi-	8g\	-bi-	8cc\	-bi-	8ee\	-bi-	.	.	.	.	.	.	.	.
2c\	-lis	2e\	-lis	2cc\	-lis	2ee\	-lis	4r	.	4r	.	4r	.	4r	.
*	*Xij	*	*	*	*	*	*	*	*	*	*	*	*	*	*
.	.	.	.	.	.	.	.	4c/	ter-	4cc\	ter-	4ee\	ter-	4gg\	ter-
4r	.	4r	.	4r	.	4r	.	4.f\	-ri-	4.a\	-ri-	4.cc\	-ri-	4.ff\	-ri-
4F/	ter-	4f\	ter-	4a\	ter-	4cc\	ter-	.	.	.	.	.	.	.	.
*	*	*	*	*	*	*	*	*	*	*custos:a	*	*	*	*	*
.	.	.	.	.	.	.	.	8f\	-bi-	8a\	-bi-	8cc\	-bi-	8ff\	-bi-
!	!	!	!	!	!	!	!	!	!	!LO:LB:g=original	!	!	!	!	!
4.F/	-ri-	4.f\	-ri-	4.a\	-ri-	4.cc\	-ri-	2f\	-lis	2a\	-lis	2cc\	-lis	2ff\	-lis
8F/	-bi-	8f\	-bi-	8a\	-bi-	8cc\	-bi-	.	.	.	.	.	.	.	.
=50-	=50-	=50-	=50-	=50-	=50-	=50-	=50-	=50-	=50-	=50-	=50-	=50-	=50-	=50-	=50-
2F/,<	-lis	2f\,<	-lis	2a\,<	-lis	2cc\,<	-lis	00r	.	00r	.	00r	.	00r	.
1A\	Ju-	1f\	iu-	1a\	iu-	1cc\	Ju-	.	.	.	.	.	.	.	.
.	.	.	.	.	.	.	.	.	.	.	.	.	.	.	.
*custos:c	*	*	*	*	*	*	*	*	*	*	*	*	*	*	*
2B\	-stus	2d\,<	-stus	2gny/,<	-ſtus	2dd\,<	-stus	.	.	.	.	.	.	.	.
=51-	=51-	=51-	=51-	=51-	=51-	=51-	=51-	=51-	=51-	=51-	=51-	=51-	=51-	=51-	=51-
!LO:LB:g=original	!	!	!	!	!	!	!	!	!	!	!	!	!	!	!
2c\	for-	2g\	for-	2g/	for-	2ee\	for-	.	.	.	.	.	.	.	.
2A/	-tis	2a\,<	-tis	2cc\	-tis	2cc\,<	-tis	.	.	.	.	.	.	.	.
2d\	et	2f\	et	2.a\	et	2dd\	et	.	.	.	.	.	.	.	.
2A/	mi-	2e\	mi-	.	.	2cc\	mi-	.	.	.	.	.	.	.	.
.	.	.	.	4a\	mi	.	.	.	.	.	.	.	.	.	.
=52-	=52-	=52-	=52-	=52-	=52-	=52-	=52-	=52-	=52-	=52-	=52-	=52-	=52-	=52-	=52-
1.E/	-ſe-	1.e\	-ſe-	2g#X/	-ſe-	2b\	-ſe-	0r	.	0r	.	0r	.	0r	.
.	.	.	.	1a\	.	2cc\	.	.	.	.	.	.	.	.	.
.	.	.	.	.	.	1b\	-ri-	.	.	.	.	.	.	.	.
2E/	-ri-	2e\	-ri-	2g#X/	-ri-	.	.	.	.	.	.	.	.	.	.
=53-	=53-	=53-	=53-	=53-	=53-	=53-	=53-	=53-	=53-	=53-	=53-	=53-	=53-	=53-	=53-
*	*	*	*	*	*	*	*	*	*	*	*	*custos:dd	*	*	*
2A/	-cors	2e\,<	-cors	2a\	-cors	2cc#X\,<	-cors	2r	.	2r	.	2r	.	2r	.
!	!	!	!	!	!	!	!	!	!	!	!	!LO:LB:g=original	!	!	!
1d\	et	1d\	et	1a\	iu-	1a\	et	1d\	et	1a\	et	1dd\	et	1ff\	et
.	.	.	.	.	.	.	.	.	.	.	.	.	.	.	.
*	*	*custos:e	*	*custos:b	*	*	*	*	*	*	*	*	*	*	*
2A/	mi-	2e\	mi-	2a\	-ſtus	2a\	mi-	2a\	mi-	2a\	mi-	2cc\	mi-	2ee\	mi-
=54-	=54-	=54-	=54-	=54-	=54-	=54-	=54-	=54-	=54-	=54-	=54-	=54-	=54-	=54-	=54-
!	!	!LO:LB:g=original	!	!LO:PB:g=original	!	!	!	!	!	!	!	!	!	!	!
1.e\	-se-	1.e\	-se-	2b\	et	2b\	-ſe-	1.e\	-ſe-	2g#X\	-ſe-	2ee\	-ſe-	1.ee\	-ſe-
.	.	.	.	2a\	mi-	2ccny\	.	.	.	1a\	.	4dd\	.	.	.
.	.	.	.	.	.	.	.	.	.	.	.	4cc\	.	.	.
.	.	.	.	2.b\	-ſe-	2.b\	.	.	.	.	.	2b/	-ri-	.	.
2E/	-ri-	2e\	-ri-	.	.	.	.	2e\	-ri-	2g#X\	-ri-	2ee\	.	2ee\	-ri-
.	.	.	.	4b\	-ri-	4b\	-ri-	.	.	.	.	.	.	.	.
=55-	=55-	=55-	=55-	=55-	=55-	=55-	=55-	=55-	=55-	=55-	=55-	=55-	=55-	=55-	=55-
*	*	*	*	*	*	*custos:b	*	*	*	*	*	*	*	*	*
*	*	*	*	*	*	*	*	*custos:A	*	*	*	*	*	*custos:ee	*
!	!	!	!	!	!	!LO:TX:t=P:problem=# below	!	!	!	!	!	!	!	!	!
1A\	-cors	1e\	-cors	1cc#X\	-cors	1cc#X\	-cors.	1A/	-cors	1a\	-cors	1cc#X\	-cors	1ee\	-cors.
!	!	!	!	!	!	!LO:PB:g=original	!	!LO:LB:g=original	!	!	!	!	!	!LO:LB:g=original	!
=56-	=56-	=56-	=56-	=56-	=56-	=56-	=56-	=56-	=56-	=56-	=56-	=56-	=56-	=56-	=56-
*M3/2	*	*M3/2	*	*M3/2	*	*M3/2	*	*M3/2	*	*M3/2	*	*M3/2	*	*M3/2	*
!	!	!	!	!	!	!	!	!	!	!	!	!	!	!LO:TX:t=P:problem=brak 2 pauz 00.r	!
1E/	Da	1e\	Da	1g#X\	Da	1b\	Da	00.r	.	00.r	.	00.r	.	00.ryy	.
1E/	pa-	1e\	pa-	1g#\	pa-	1b\	pa-	.	.	.	.	.	.	.	.
1A\,<	-cem	1e\,<	-cem	1a\,<	-cem	1ccny\	-cem	.	.	.	.	.	.	.	.
=57-	=57-	=57-	=57-	=57-	=57-	=57-	=57-	=57-	=57-	=57-	=57-	=57-	=57-	=57-	=57-
1.G/,<	Do-	1.g\	Do-	1.b\	Do-	1.dd\	Do-	.	.	.	.	.	.	.	.
2F/	-mi-	2g\	-mi-	2a\	-mi-	2dd\	-mi-	.	.	.	.	.	.	.	.
1E/,<	-ne	1g\,<	-ne	1g#X\,<	-ne	1ee\	-ne	.	.	.	.	.	.	.	.
=58-	=58-	=58-	=58-	=58-	=58-	=58-	=58-	=58-	=58-	=58-	=58-	=58-	=58-	=58-	=58-
1.F/	in	1.f\	in	1.a\	in	1.cc\	in	00.r	.	00.r	.	00.r	.	00.ryy	.
2E/	di-	2f\	di-	2a\	di-	2cc\	di-	.	.	.	.	.	.	.	.
*custos:A	*	*	*	*	*	*	*	*	*	*	*	*	*	*	*
1D/	-e-	1f\	-e-	1a\	-e-	1dd\	-e-	.	.	.	.	.	.	.	.
=59-	=59-	=59-	=59-	=59-	=59-	=59-	=59-	=59-	=59-	=59-	=59-	=59-	=59-	=59-	=59-
!LO:PB:g=original	!	!	!	!	!	!	!	!	!	!	!	!	!	!	!
1A/	-bus	1e\,<	-bus	1a\,<	-bus	1cc\	-bus	.	.	.	.	.	.	.	.
0E/	no-	0e\	no-	(1a\	no-	0b\	no-	.	.	.	.	.	.	.	.
.	.	.	.	1g#X\)	.	.	.	.	.	.	.	.	.	.	.
=60-	=60-	=60-	=60-	=60-	=60-	=60-	=60-	=60-	=60-	=60-	=60-	=60-	=60-	=60-	=60-
0A\	-ſtris	0e\	-ſtris	0a\	-ſtris	0cc#X\	-ſtris	1A/	Da	1a\	Da	1cc#X\	Da	1ee\	Da
.	.	.	.	.	.	.	.	1A/	pa-	1a\	pa-	1cc#\	pa-	1ee\	pa-
.	.	.	.	.	.	.	.	.	.	.	.	.	.	.	.
1r	.	1r	.	1r	.	1r	.	1d\	-cem	1a\,<	-cem	1dd\,<	-cem	1ff\,<	-cem
=61-	=61-	=61-	=61-	=61-	=61-	=61-	=61-	=61-	=61-	=61-	=61-	=61-	=61-	=61-	=61-
00.r	.	00.r	.	00.r	.	00.r	.	1.e\	Do-	1.gny\	Do-	1.ccny\	Do-	1.ee\	Do-
.	.	.	.	.	.	.	.	2f\	-mi-	2g\	-mi-	2cc\	-mi-	2ee\	-mi-
.	.	.	.	.	.	.	.	1g\,<	-ne	1g\,<	-ne	1b\,<	-ne	1dd\,<	-ne
=62-	=62-	=62-	=62-	=62-	=62-	=62-	=62-	=62-	=62-	=62-	=62-	=62-	=62-	=62-	=62-
!	!	!	!	!	!	!	!	!	!	!	!	!LO:TX:t=P:problem=niewryaźnie źródło	!	!	!
.	.	.	.	.	.	.	.	1.d\	in	1.a\	in	1.dd\	in	1.ff\	in
.	.	.	.	.	.	.	.	2e\	di-	2a\	di-	2cc\	di-	2ee\	di-
.	.	.	.	.	.	.	.	1f\	-e-	1a\,<	-e-	1a/	-e-	1ccny\	-e-
=63-	=63-	=63-	=63-	=63-	=63-	=63-	=63-	=63-	=63-	=63-	=63-	=63-	=63-	=63-	=63-
0.r	.	0.r	.	0.r	.	0.r	.	1d\	-bus	1a\,<	-bus	1dd\,<	-bus	1ff\,<	-bus
.	.	.	.	.	.	.	.	0e\	no-	(1a\	no-	0b\	no-	0ee\	no-
!	!	!	!	!	!	!	!	!	!	!LO:TX:t=P:♯below:problem	!	!	!	!	!
.	.	.	.	.	.	.	.	.	.	1g#X\)	.	.	.	.	.
=64-	=64-	=64-	=64-	=64-	=64-	=64-	=64-	=64-	=64-	=64-	=64-	=64-	=64-	=64-	=64-
*	*	*	*	*	*	*	*	*	*	*	*	*custos:cc	*	*	*
!	!	!	!	!	!	!	!	!	!	!LO:PB:g=original	!	!	!	!	!
1A\	Da	1a\	Da	1cc#X\	Da	1ee\	Da	0A/	-ſtris	0a\	-ſtris	0cc#X\	-ſtris	0ee\	-ſtris
1A\	pa-	1a\	pa-	1cc#\	pa-	1ee\	pa-	.	.	.	.	.	.	.	.
*	*	*	*	*custos:cc#	*	*	*	*	*	*	*	*	*	*	*
1D/	-cem	1f\,<	-cem	1dd\	-cem	1ff\	-cem	1r	.	1r	.	1r	.	1r	.
!	!	!	!	!	!	!	!	!	!	!	!	!	!	!	!
.	.	.	.	.	.	.	.	.	.	.	.	.	.	.	.
=65-	=65-	=65-	=65-	=65-	=65-	=65-	=65-	=65-	=65-	=65-	=65-	=65-	=65-	=65-	=65-
!	!	!	!	!LO:LB:g=original	!	!	!	!	!	!	!	!LO:LB:g=original	!	!	!
1.A\	Do-	1.a\	Do-	1.cc#X\	Do-	1.ee\	D(o-	1A/	Da	1a\	Da	1cc#X\	Da	1ee\	Da
.	.	.	.	.	.	.	.	1A/	pa-	1a\	pa-	1cc#\	pa-	1ee\	pa-
2A/	-mi-	2a\	-mi-	2cc#\	-mi-	2ee\	-mi)-	.	.	.	.	.	.	.	.
*	*	*custos:a	*	*	*	*	*	*	*	*	*	*	*	*	*
1D/,<	-ne	1a\	-ne	1a\,<	-ne	1dd\,<	-ne	1d\,<	-cem	1f\	-cem	1dd\	-cem	1ff\	-cem
!	!	!	!	!	!	!	!	!	!	!	!	!	!	!	!
.	.	.	.	.	.	.	.	.	.	.	.	.	.	.	.
=66-	=66-	=66-	=66-	=66-	=66-	=66-	=66-	=66-	=66-	=66-	=66-	=66-	=66-	=66-	=66-
*	*ij	*	*	*	*	*	*	*	*	*	*	*	*	*	*
!	!	!LO:PB:g=original	!	!	!	!	!	!	!	!	!	!	!	!	!
1A\	Da	1a\	Da	1cc#X\	Da	1ee\	Da	1.A/	Do-	1.a\	Do-	1.cc#X\	Do-	1.ee\	Do-
1A\	pa-	1a\	pa-	1cc#\	pa-	1ee\	pa-	.	.	.	.	.	.	.	.
.	.	.	.	.	.	.	.	2A/	-mi-	2a\	-mi-	2cc#\	-mi-	2ee\	-mi-
*	*	*	*	*	*	*custos:ee	*	*custos:f	*	*	*	*	*	*	*
1D/	-cem	1f\,<	-cem	1dd\	-cem	1ff\	-cem	1d\	-ne	1a\	-ne	1a/	-ne	1dd\	-ne
!	!	!	!	!	!	!	!	!	!	!	!	!	!	!	!
.	.	.	.	.	.	.	.	.	.	.	.	.	.	.	.
=67-	=67-	=67-	=67-	=67-	=67-	=67-	=67-	=67-	=67-	=67-	=67-	=67-	=67-	=67-	=67-
!	!	!	!	!LO:TX:t=P:problem=# below	!LO:LB:g=original	!	!LO:PB:g=original	!	!	!	!	!	!	!	!
1.A\	Do-	1.a\	Do-	1.cc#X\	Do-	1.ee\	Do-	0.r	.	0.r	.	0.r	.	0.r	.
.	.	.	.	.	.	.	.	.	.	.	.	.	.	.	.
2A\	-mi-	2a\	-mi-	2cc#\	-mi-	2ee\	-mi-	.	.	.	.	.	.	.	.
1A\	-ne	1a\	-ne	1a\,<	-ne	1ee\	-ne	.	.	.	.	.	.	.	.
*	*Xij	*	*	*	*	*	*	*	*	*	*	*	*	*	*
.	.	.	.	.	.	.	.	.	.	.	.	.	.	.	.
=68-	=68-	=68-	=68-	=68-	=68-	=68-	=68-	=68-	=68-	=68-	=68-	=68-	=68-	=68-	=68-
1.F/	in	1.A/	in	1.a\	in	1.ccny\	in	1.f\	in	1.a\	in	1.ccny\	in	1.ff\	in
.	.	.	.	.	.	.	.	.	.	.	.	.	.	.	.
2F/	di-	2A/	di-	2a\	di-	2cc\	di-	2f\	di-	2a\	di-	2cc\	di-	2ff\	di-
*	*	*	*	*	*	*	*	*	*	*	*	*	*	*custos:dd	*
1c\	-e-	1c\	-e-	1e/	-e-	1cc\	-e-	1c\	-e-	1gny\	-e-	1cc\	-e-	1ee\	-e-
.	.	.	.	.	.	.	.	.	.	.	.	.	.	.	.
=69-	=69-	=69-	=69-	=69-	=69-	=69-	=69-	=69-	=69-	=69-	=69-	=69-	=69-	=69-	=69-
!	!	!	!	!	!	!	!	!	!	!	!	!	!	!LO:PB:g=original	!
1G/,<	-bus	1e\	-bus	1gny\,<	-bus	1b-X\	-bus	1g\,<	-bus	1b-X\	-bus	1dd\	-bus	1dd\,<	-bus
*custos:D	*	*	*	*	*	*	*	*	*	*	*	*	*	*	*
0A\	no-	0A/	no-	0ee\	no-	(1dd\	no-	0e\	no-	0a\	no-	0a/	no-	(1dd\	no-
!	!	!	!	!	!	!	!	!	!	!	!	!	!	!LO:TX:t=P:♯below:problem	!
.	.	.	.	.	.	1a\)	.	.	.	.	.	.	.	1cc#X\)	.
=70-	=70-	=70-	=70-	=70-	=70-	=70-	=70-	=70-	=70-	=70-	=70-	=70-	=70-	=70-	=70-
!LO:LB:g=original	!	!	!	!	!	!	!	!	!	!	!	!	!	!	!
*M2/1	*	*M2/1	*	*M2/1	*	*M2/1	*	*M2/1	*	*M2/1	*	*M2/1	*	*M2/1	*
*met(C|)	*	*met(C|)	*	*met(C|)	*	*met(C|)	*	*met(C|)	*	*met(C|)	*	*met(C|)	*	*met(C|)	*
1D/,<	-stris	1d\,<	-ſtris	1dd\,<	-ſtris	1a\	-ſtris	1f#X\	-ſtris	1f#X\	-ſtris	1a/	-ſtris	1dd\	-ſtris
1A\	Cre-	1e\	Cre-	1a\	Cre-	1cc#X\	Cre-	00r	.	00r	.	00r	.	00r	.
=71-	=71-	=71-	=71-	=71-	=71-	=71-	=71-	=71-	=71-	=71-	=71-	=71-	=71-	=71-	=71-
2d\	-a-	2f#X\	-a-	2a\	-a-	2dd\	-a-	.	.	.	.	.	.	.	.
2G/,<	-tor	2g\,<	-tor	2b-X\,<	-tor	2dd\	-tor	.	.	.	.	.	.	.	.
2.A/	o-	4g\	o-	1a\	o-	1.ccny\	o-	.	.	.	.	.	.	.	.
.	.	4fny\	.	.	.	.	.	.	.	.	.	.	.	.	.
.	.	1f\	.	.	.	.	.	.	.	.	.	.	.	.	.
4B\	.	.	.	.	.	.	.	.	.	.	.	.	.	.	.
=72-	=72-	=72-	=72-	=72-	=72-	=72-	=72-	=72-	=72-	=72-	=72-	=72-	=72-	=72-	=72-
*	*	*	*	*custos:a	*	*	*	*	*	*	*	*	*	*	*
2c\	.	.	.	1g\	-mni-	.	.	.	.	.	.	.	.	.	.
2c\	-mni-	2e\	-mni-	.	.	2cc\	-mni-	.	.	.	.	.	.	.	.
*	*	*custos:e	*	*	*	*	*	*	*	*	*	*	*	*	*
!	!	!	!	!LO:LB:g=original	!	!	!	!	!	!	!	!	!	!	!
2F/,<	-um	2f\,<	-um	2a\	-um	2cc\,<	-um	1r	.	1r	.	1r	.	1r	.
!	!	!LO:LB:g=original	!	!	!	!	!	!	!	!	!	!	!	!	!
2c\	De-	2e\	De-	2g/	De-	2cc\	De-	.	.	.	.	.	.	.	.
=73-	=73-	=73-	=73-	=73-	=73-	=73-	=73-	=73-	=73-	=73-	=73-	=73-	=73-	=73-	=73-
4G/	-us	4g\	-us	4bny\	-us	4dd\	-us	4r	.	4r	.	4r	.	4r	.
4G/	ter-	4g\	ter-	4b\	ter-	4dd\	ter-	4g\	De-	4g\	De-	4b/	De-	4dd\	De-
4.c\	-ri-	4.e\	-ri-	4g/	-ri-	4.cc\	-ri-	4c/	-us	4g\,<	-us	4cc\	-us	4ee\	-us
.	.	.	.	4g/,	-bi-	.	.	4c/	ter-	4g\	ter-	4cc\	ter-	4ee\	ter-
8c\	-bi-	8e\	-bi-	.	.	8cc\	-bi-	.	.	.	.	.	.	.	.
2F/	-lis	2c/	-lis	2a\	-lis	2cc\	-lis	4.fny\	-ri-	4.fny\	-ri-	4.cc\	-ri-	4.ff\	-ri-
.	.	.	.	.	.	.	.	8f\	-bi-	8f\	-bi-	8cc\	-bi-	8ff\	-bi-
4r	.	4r	.	4r	.	4r	.	2c/	-lis	2g\	-lis	2cc\	-lis	2ee\	-lis
*	*ij	*	*	*	*	*	*	*	*	*	*	*	*	*	*
4c\	De-	4e\	De-	4g/	De-	4cc\	De-	.	.	.	.	.	.	.	.
=74-	=74-	=74-	=74-	=74-	=74-	=74-	=74-	=74-	=74-	=74-	=74-	=74-	=74-	=74-	=74-
4G/	-us	4g\	-us	4b\	-us	4dd\	-us	4r	.	4r	.	4r	.	4r	.
*	*	*	*	*	*	*	*	*	*	*	*	*	*	*	*ij
*	*	*	*	*	*	*custos:dd	*	*	*	*	*	*	*	*	*
4G/	ter-	4d\	ter-	4dd\	ter-	4dd\	ter-	4g\	De-	4g\	De-	4b/	De-	4dd\	De-
*	*	*	*	*	*	*	*	*	*	*	*	*custos:a	*	*	*
!	!	!	!	!	!	!LO:LB:g=original	!	!	!	!	!	!	!	!	!
4.d\	-ri-	4.f\	-ri-	4.dd\	-ri-	4.dd\	-ri-	4d\	-us	4a\	-us	4a/	-us	4dd\	-us
*	*	*	*	*	*	*	*	*	*	*custos:a	*	*	*	*	*
!	!	!	!	!	!	!	!	!	!	!	!	!LO:LB:g=original	!	!	!
.	.	.	.	.	.	.	.	4d\	ter-	4f\	ter-	4a/	ter-	4dd\	ter-
8d\	-bi-	8f\	-bi-	8a\	-bi-	8dd\	-bi-	.	.	.	.	.	.	.	.
!	!	!	!	!	!	!	!	!	!	!LO:LB:g=original	!	!	!	!	!
2A/	-lis	2e\	-lis	2a\	-lis	2cc\	-lis	4.a\	-ri-	4.a\	-ri-	4.cc\	-ri-	4.ee\	-ri-
.	.	.	.	.	.	.	.	8a\	-bi-	8a\	-bi-	8cc\	-bi-	8ee\	-bi-
2r	.	2r	.	2r	.	2r	.	2e\	-lis	2g#X\	-lis	2b/	-lis	2ee\	-lis
*	*Xij	*	*	*	*	*	*	*	*	*	*	*	*	*	*Xij
=75-	=75-	=75-	=75-	=75-	=75-	=75-	=75-	=75-	=75-	=75-	=75-	=75-	=75-	=75-	=75-
2r	.	2r	.	2r	.	2r	.	00r	.	00r	.	00r	.	00r	.
2c\	ter-	2e\	ter-	2g/	ter-	2ee\	ter-	.	.	.	.	.	.	.	.
2.c\	-ri-	2.g\	-ri-	2.ccny\	-ri-	2.ee\	-ri-	.	.	.	.	.	.	.	.
*custos:G	*	*	*	*	*	*	*	*	*	*	*	*	*	*	*
4c\	-bi-	4g\	-bi-	4cc\	-bi-	4ee\	-bi-	.	.	.	.	.	.	.	.
=76-	=76-	=76-	=76-	=76-	=76-	=76-	=76-	=76-	=76-	=76-	=76-	=76-	=76-	=76-	=76-
!LO:LB:g=original	!	!	!	!	!	!	!	!	!	!	!	!	!	!	!
2G/	-lis	2g\,<	-lis	2b\,<	-lis	2dd\	-lis	.	.	.	.	.	.	.	.
2G/	et	2g\	et	2b\	et	2dd\	et	.	.	.	.	.	.	.	.
!	!	!	!	!	!	!LO:SIC:v:l:s=for-	!	!	!	!	!	!	!	!	!
1A\	for-	1e\	for-	4a\	for-	4cc\	fo-	.	.	.	.	.	.	.	.
.	.	.	.	4g#X\	.	4bny\	.	.	.	.	.	.	.	.	.
.	.	.	.	4a\	.	4cc\	.	.	.	.	.	.	.	.	.
.	.	.	.	4b\	.	4dd\	.	.	.	.	.	.	.	.	.
=77-	=77-	=77-	=77-	=77-	=77-	=77-	=77-	=77-	=77-	=77-	=77-	=77-	=77-	=77-	=77-
2E/	-tis	2e\,<	-tis	2g#X/,<	-tis	2b\,<	-tis	0r	.	0r	.	0r	.	0r	.
2A/	iu-	2e\	iu-	2a\	iu-	2cc\	iu-	.	.	.	.	.	.	.	.
*	*	*	*	*custos:a	*	*	*	*	*	*	*	*	*	*	*
2G/,<	-stus	2g\,<	-stus	2b\	-ſtus	2dd\	-ſtus	.	.	.	.	.	.	.	.
!	!	!	!	!LO:LB:g=original	!	!	!	!	!	!	!	!	!	!	!
4D/	et	4f\	et	4a\	et	1dd\	et	.	.	.	.	.	.	.	.
4E/	mi	4f\	mi	4a\	mi-	.	.	.	.	.	.	.	.	.	.
=78-	=78-	=78-	=78-	=78-	=78-	=78-	=78-	=78-	=78-	=78-	=78-	=78-	=78-	=78-	=78-
1.E/	-ſe-	1.e\	-ſe-	2g#X/	-ſe-	.	.	1r	.	1r	.	1r	.	1r	.
.	.	.	.	1a\	.	2cc\	mi-	.	.	.	.	.	.	.	.
.	.	.	.	.	.	2.b\	-ſe-	2r	.	2r	.	2r	.	2r	.
*	*	*	*	*	*	*	*	*custos:A	*	*	*	*	*	*	*
2E/	-ri	2e\	-ri	2g#X/	-ri-	.	.	2e\	ter-	2bny\	ter-	2ee\	ter-	2ee\	ter-
.	.	.	.	.	.	4b\	-ri-	.	.	.	.	.	.	.	.
=79-	=79-	=79-	=79-	=79-	=79-	=79-	=79-	=79-	=79-	=79-	=79-	=79-	=79-	=79-	=79-
!	!	!	!	!	!	!	!	!LO:LB:g=original	!	!	!	!	!	!	!
1A\	cors	1e\	cors	1a\	-cors	1cc#X\	-cors	2.A/	-ri-	2.a\	-ri-	2.cc#X\	-ri-	2.ee\	-ri-
.	.	.	.	.	.	.	.	4A/	-bi-	4a\	-bi-	4cc#\	-bi-	4ee\	-bi-
0r	.	0r	.	0r	.	0r	.	2A/,<	-lis	2a\	-lis	2cc#\,<	-lis	2ee\	-lis
.	.	.	.	.	.	.	.	1d\	for-	1a\	for-	1dd\	for-	1ff\	for-
=80-	=80-	=80-	=80-	=80-	=80-	=80-	=80-	=80-	=80-	=80-	=80-	=80-	=80-	=80-	=80-
.	.	.	.	.	.	.	.	.	.	.	.	.	.	.	.
.	.	.	.	.	.	.	.	2e\,<	-tis	2gny\,<	-tis	2ccny\,<	-tis	2ee\,<	-tis
*	*	*custos:e	*	*	*	*	*	*	*	*	*	*	*	*	*
1r	.	1r	.	1r	.	1r	.	2c/	et	2g\	et	2cc\	et	2ee\	et
*	*	*	*	*	*	*	*	*	*	*	*	*	*	*custos:ee	*
.	.	.	.	.	.	.	.	2f\	iu-	2a\	iu-	2cc\	iu-	2ff\	iu-
=81-	=81-	=81-	=81-	=81-	=81-	=81-	=81-	=81-	=81-	=81-	=81-	=81-	=81-	=81-	=81-
!	!	!LO:LB:g=original	!	!	!	!	!	!	!	!	!	!	!	!LO:LB:g=original	!
4r	.	4r	.	4r	.	4r	.	1c\	-stus	1g\	-ſtus	1cc\	-stus	1ee\	-ſtus
4c\	ter-	4e\	Ter-	4cc\	ter-	4ee\	ter-	.	.	.	.	.	.	.	.
4.c\	-ri-	4.g\	-ri-	4.cc\	-ri-	4.ee\	-ri-	.	.	.	.	.	.	.	.
8c\	-bi-	8g\	-bi-	8cc\	-bi-	8ee\	-bi-	.	.	.	.	.	.	.	.
2c\	-lis	2e\	-lis	2cc\	-lis	2ee\	-lis	4r	.	4r	.	4r	.	4r	.
.	.	.	.	.	.	.	.	4c/	ter-	4g\	ter-	4cc\	ter-	4ee\	ter-
4r	.	4r	.	4r	.	4r	.	4.c/	-ri-	4.g\	-ri-	4.cc\	-ri-	4.ee\	-ri-
*	*ij	*	*	*	*	*	*	*	*	*	*	*	*	*	*
4c\	ter-	4e\	ter-	4ee\	ter-	4cc\	ter-	.	.	.	.	.	.	.	.
.	.	.	.	.	.	.	.	8c/	-bi-	8g\	-bi-	8cc\	-bi-	8ee\	-bi-
=82-	=82-	=82-	=82-	=82-	=82-	=82-	=82-	=82-	=82-	=82-	=82-	=82-	=82-	=82-	=82-
4.c\	-ri-	4.g\	-ri-	4.cc\	-ri-	4.ee\	-ri-	2c/	-lis	2g\	-lis	2cc\	-lis	2ee\	-lis
8c\	-bi-	8g\	-bi-	8cc\	-bi-	8ee\	-bi-	.	.	.	.	.	.	.	.
*	*	*	*	*	*	*custos:cc	*	*	*	*	*	*	*	*	*
2c\	-lis	2e\	-lis	2cc\	-lis	2ee\	-lis	4r	.	4r	.	4r	.	4r	.
*	*Xij	*	*	*	*	*	*	*	*	*	*	*	*ij	*	*
.	.	.	.	.	.	.	.	4c/	ter-	4cc\	ter-	4ee\	ter-	4gg\	ter-
!	!	!	!	!	!	!LO:LB:g=original	!	!	!	!	!	!	!	!	!
4r	.	4r	.	4r	.	4r	.	4.f\	-ri-	4.a\	-ri-	4.cc\	-ri-	4.ff\	-ri-
*	*	*	*	*	*ij	*	*	*	*	*	*	*	*	*	*
4F/	ter-	4f\	ter-	4a\	ter-	4cc\	ter-	.	.	.	.	.	.	.	.
.	.	.	.	.	.	.	.	8f\	-bi-	8a\	-bi-	8cc\	-bi-	8ff\	-bi-
4.F/	-ri-	4.f\	-ri-	4.a\	-ri-	4.cc\	-ri-	2f\	-lis	2a\	-lis	2cc\	-lis	2ff\	-lis
8F/	-bi-	8f\	-bi-	8a\	-bi-	8cc\	-bi-	.	.	.	.	.	.	.	.
*	*	*	*	*	*	*	*	*	*	*	*	*	*Xij	*	*
=83-	=83-	=83-	=83-	=83-	=83-	=83-	=83-	=83-	=83-	=83-	=83-	=83-	=83-	=83-	=83-
*custos:A	*	*	*	*	*	*	*	*	*	*	*	*	*	*	*
2F/	-lis	2f\,<	-lis	2a\	-lis	2cc\	-lis	00r	.	00r	.	00r	.	00r	.
*	*	*	*	*	*Xij	*	*	*	*	*	*	*	*	*	*
!LO:LB:g=original	!	!	!	!	!	!	!	!	!	!	!	!	!	!	!
1A\	for-	1f\	for-	1a\	for-	1cc\	iu-	.	.	.	.	.	.	.	.
.	.	.	.	.	.	.	.	.	.	.	.	.	.	.	.
2A/,<	-tis	2d\,<	-tis	2gny/	-tis	2dd\,<	-stus	.	.	.	.	.	.	.	.
=84-	=84-	=84-	=84-	=84-	=84-	=84-	=84-	=84-	=84-	=84-	=84-	=84-	=84-	=84-	=84-
2c\	iu-	2g\	iu-	2g/	iu-	2ee\	for-	.	.	.	.	.	.	.	.
2A/	-stus	2a\,<	-ſtus	2cc\,<	-stus	2cc\,<	-tis	.	.	.	.	.	.	.	.
2d\	et	2f\	et	2.a\	et	2dd\	et	.	.	.	.	.	.	.	.
2A/	mi-	2e\	mi-	.	.	2cc\	mi-	.	.	.	.	.	.	.	.
*	*	*	*	*custos:g#	*	*	*	*	*	*	*	*	*	*	*
.	.	.	.	4a\	mi-	.	.	.	.	.	.	.	.	.	.
=85-	=85-	=85-	=85-	=85-	=85-	=85-	=85-	=85-	=85-	=85-	=85-	=85-	=85-	=85-	=85-
!	!	!	!	!LO:LB:g=original	!	!	!	!	!	!	!	!	!	!	!
1.E/	-ſe-	1.e\	-ſe-	2g#X/	-ſe-	2b\	.	0r	.	0r	.	0r	.	0r	.
.	.	.	.	1a\	.	2cc\	.	.	.	.	.	.	.	.	.
.	.	.	.	.	.	1b\	-ſe-	.	.	.	.	.	.	.	.
2E/	-ri-	2e\	-ri-	2g#X/	-ri-	.	.	.	.	.	.	.	.	.	.
=86-	=86-	=86-	=86-	=86-	=86-	=86-	=86-	=86-	=86-	=86-	=86-	=86-	=86-	=86-	=86-
2A/,<	-cors	2e\,<	-cors	2a\,<	-cors	2cc#X\	-ri-	2r	.	2r	.	2r	.	2r	.
1d\	et	1d\	et	1a\	iu-	1a\,<	-cors	1d\	et	1a\	et	1dd\	et	1ff\	et
.	.	.	.	.	.	.	.	.	.	.	.	.	.	.	.
*	*	*	*	*	*	*	*	*	*	*	*	*custos:ee	*	*	*
2A/	mi-	2e\	mi-	2a\,<	-ſtus	2a\	et	2a\	mi-	2a\	mi-	2cc\	mi-	2ee\	mi-
=87-	=87-	=87-	=87-	=87-	=87-	=87-	=87-	=87-	=87-	=87-	=87-	=87-	=87-	=87-	=87-
!	!	!	!	!	!	!	!	!	!	!	!	!LO:LB:g=original	!	!	!
1.e\	-ſe-	1.e\	-ſe-	2b\	et	2b\	mi-	1.e\	-ſe-	2g#X\	-ſe-	2ee\	-ſe-	1.ee\	-ſe-
.	.	.	.	2a\	mi-	2ccny\	.	.	.	1a\	.	4dd\	.	.	.
.	.	.	.	.	.	.	.	.	.	.	.	4cc\	.	.	.
.	.	.	.	2.b\	-ſe-	2.b\	-ſe-	.	.	.	.	2b/	.	.	.
2E/	-ri-	2e\	-ri-	.	.	.	.	2e\	-ri-	2g#X\	-ri-	2ee\	-ri-	2ee\	-ri-
.	.	.	.	4b\	-ri-	4b\	-ri-	.	.	.	.	.	.	.	.
=88-	=88-	=88-	=88-	=88-	=88-	=88-	=88-	=88-	=88-	=88-	=88-	=88-	=88-	=88-	=88-
0A\	-cors.-	0e\	-cors.-	0cc#X\	-cors.	0cc#X\	-cors.-	0A/	-cors.-	0a\	-cors-	0cc#X\	-cors.-	0ee\	-cors.-
==	==	==	==	==	==	==	==	==	==	==	==	==	==	==	==
*-	*-	*-	*-	*-	*-	*-	*-	*-	*-	*-	*-	*-	*-	*-	*-
!!!system-decoration: [(s1,s2,s3,s4)][(s5,s6,s7,s8)]
!!!RDF**kern: > = above
!!!RDF**kern: < = below
!!!ENC: Anastazja Marusiak
!!!END: 2021-09-24
!!!EED: Andrzej Borzym
!!!EEV: 2021-10-05
